icons/job/caster/SMN.svg

<svg viewBox="0 0 12.7 12.7" xmlns="http://www.w3.org/2000/svg">
  <g>
    <path d="M 3.2942156,10.733433 C 2.2080413,10.472768 2.0286779,9.758919 3.563191,9.8253775 3.9144635,9.8246016 4.0844179,9.8116823 4.0941181,9.6456869 4.2329109,7.270671 2.6544593,2.7477196 2.5238821,2.408582 2.2247504,1.6316702 2.1950147,1.443677 3.0731149,2.1556517 3.8390141,2.776652 7.0373243,5.4909333 8.9156231,5.6861501 9.1270086,5.708122 9.2153481,5.5865544 9.1672292,5.1481068 9.0944618,4.4850599 9.1426106,4.1144223 9.565814,3.9533694 10.175671,3.7213093 10.390086,4.6391102 10.363176,5.4533297 10.253092,8.7840548 7.7211787,11.234379 4.8465468,10.968609 4.0290073,10.893023 3.9587996,10.892922 3.2942156,10.733433 Z M 8.4721596,7.3948172 C 8.6597645,7.1210378 8.6438141,7.0042757 8.4910933,6.9534434 7.7268205,6.6990528 5.3743049,5.8470487 4.4724827,4.8086175 4.2964268,4.6058931 4.3093289,4.7596309 4.3861915,4.954435 4.8971363,6.2493757 5.0901777,7.6403995 5.0473239,9.2603595 5.04012,9.5302941 5.0864599,9.5593447 5.321956,9.5323011 6.848382,9.3064889 7.7007791,8.5261076 8.4721596,7.3948172 Z" />
  </g>
</svg>

<svg viewBox="0 0 12.7 12.7" xmlns="http://www.w3.org/2000/svg"><path d="M3.294 10.733c-1.086-.26-1.265-.974.27-.908.35 0 .52-.013.53-.18.139-2.374-1.44-6.897-1.57-7.236-.3-.777-.329-.965.55-.253.765.62 3.963 3.335 5.842 3.53.211.022.3-.1.251-.538-.073-.663-.024-1.034.399-1.195.61-.232.824.686.797 1.5-.11 3.331-2.642 5.781-5.516 5.516-.818-.076-.888-.076-1.553-.236Zm5.178-3.338c.188-.274.172-.39.02-.442-.765-.254-3.118-1.106-4.02-2.144-.176-.203-.163-.05-.086.145.511 1.295.704 2.686.661 4.306-.007.27.04.3.275.272 1.526-.226 2.379-1.006 3.15-2.137Z"/></svg>
